!!!COM: Bach, Johann Sebastian
!!!CDT: 1685/3//-1750/7/28/
!!!OTL@@DE: Der Tag, der ist so freudenreich
!!!OTL@EN: This day is so joyful
!!!AGN: 4-Part Chorale
!!!SCT: BH 158
!!!SCT: BWV 294
**harm	**root	**kern	**kern	**kern	**kern
!	!	!bass	!tenor	!alto	!soprno
*	*Iorgan	*Iorgan	*Iorgan	*Iorgan	*Iorgan
*k[f#]	*k[f#]	*k[f#]	*k[f#]	*k[f#]	*k[f#]
*G:	*G:	*G:	*G:	*G:	*G:
*M4/4	*M4/4	*M4/4	*M4/4	*M4/4	*M4/4
*met(c)	*met(c)	*met(c)	*met(c)	*met(c)	*met(c)
*MM60	*MM60	*MM60	*MM60	*MM60	*MM60
*>[A,A,B]	*>[A,A,B]	*>[A,A,B]	*>[A,A,B]	*>[A,A,B]	*>[A,A,B]
*>A	*>A	*>A	*>A	*>A	*>A
I	4GG	8G	4B	4d	4g
.	.	8F#	.	.	.
=1	=1	=1	=1	=1	=1
vi	4EE	8E	4B	4e	4g
.	.	8D	.	.	.
IV	4CC	8C	4c	4.e	4g
.	.	8BB	.	.	.
ii	4AA	4AA	4c	.	4a
.	.	.	.	8f#	.
V7/IV	4GG	4GG	8d	4g	4b
.	.	.	8fn	.	.
=2	=2	=2	=2	=2	=2
IV	4CC	4C	4e	4.g	8cc
.	.	.	.	.	8b
V	4DD	4D	8A	.	4a
.	.	.	16d	8f#	.
.	.	.	16c	.	.
I;	2GG;	2GG;	2B;	2d;	2g;
=3	=3	=3	=3	=3	=3
V	4DD	4D	4d	4f#	4a
ii	8AA	8AA	8c	8e	4a
vii7/IV	8BB	8BB	[8B	8d	.
ii	4AA	4C	8B]	[4e	4e
.	.	.	[8A	.	.
V	4DD	4D	8A]	8e]	4f#
.	.	.	16B	16d	.
.	.	.	16A	16c	.
=4	=4	=4	=4	=4	=4
vi	4EE	4E	4.G	8B	4g
.	.	.	.	8G	.
V	4DD	4D	.	4d	4a
.	.	.	8F#	.	.
I;	4GG;	4GG;	4B;	4d;	4g;
=:|!	=:|!	=:|!	=:|!	=:|!	=:|!
*>B	*>B	*>B	*>B	*>B	*>B
I	4GG	4G	4B	4d	4g
=5	=5	=5	=5	=5	=5
V7b	4DD	4F#	8A	4d	4dd
.	.	.	8c	.	.
I	8GG	8G	8B	8g	4dd
Vb	8DD	8F#	8A	8a	.
vi	4EE	4E	4G	8b	4ee
.	.	.	.	8cc	.
Vb	4DD	4F#	4d	8b	8dd
.	.	.	.	8a	8cc
!!linebreak: 3
=6	=6	=6	=6	=6	=6
I	4GG	8G	4d	4g	4b
.	.	8F#	.	.	.
viib/V	4CC#	4E	4e	4g	4cc#
V;	4DD;	4D;	4f#;	4a;	4dd;
Vb	4DD	4F#	8d	4a	4dd
.	.	.	8c	.	.
=7	=7	=7	=7	=7	=7
I	4GG	8G	8B	4g	4dd
.	.	8A	8c	.	.
Ib	4GG	8B	8d	4g	4dd
.	.	8G	8B	.	.
IV	4CC	4c	8c	4g	4ee
.	.	.	8B	.	.
Vb	4DD	4F#	8A	[4a	8dd
.	.	.	8d	.	8cc
=8	=8	=8	=8	=8	=8
I	4GG	4G	4d	8a]	4b
.	.	.	.	4g	.
V	4DD	4D	8.d	.	4a
.	.	.	.	8f#	.
.	.	.	16c	.	.
I;	2GG;	2GG;	2B;	2d;	2g;
=9	=9	=9	=9	=9	=9
IV	4CC	8C	4G	4c	4e
.	.	8BB	.	.	.
viib	4FF#	4AA	4A	4c	4f#
Ib	4GG	4BB	8D	8d	4g
.	.	.	4G	4B	.
vii7/V	8CC#	4C#	.	.	4e
Vb/V	8AA	.	16F#	8A	.
.	.	.	16E	.	.
=10	=10	=10	=10	=10	=10
V	4DD	4D	4F#	8A	4d
.	.	.	.	8B	.
V7/V	4AA	4AA	8E	4A	4c#
.	.	.	16F#	.	.
.	.	.	16G	.	.
V;	2DD;	2DD;	2F#;	2A;	2d;
!!linebreak: 3
=11	=11	=11	=11	=11	=11
vi	4EE	8E	4B	4e	4g
.	.	8D	.	.	.
IV	4CC	8C	4c	4e	4g
.	.	8BB	.	.	.
ii	8AA	4AA	4c	8e	4a
viib	8FF#	.	.	8f#	.
V7/IV	4GG	4GG	8d	4g	4b
.	.	.	8fn	.	.
=12	=12	=12	=12	=12	=12
IV	4CC	4C	4e	4.g	8cc
.	.	.	.	.	8b
V	4DD	4D	8A	.	4a
.	.	.	16d	8f#	.
.	.	.	16c	.	.
I;	2GG;	2GG;	2B;	2d;	2g;
=13	=13	=13	=13	=13	=13
V	4DD	8DD	8F#	4d	4a
.	.	8EE	8G	.	.
Vb	4DD	8FF#	4A	4d	4a
.	.	8GG	.	.	.
V/V	4AA	8AA	4A	4c#	4e
.	.	8GG	.	.	.
Vb	4DD	4FF#	4A	4d	4f#
=14	=14	=14	=14	=14	=14
vi7b	4EE	4EE	4B	4d	8g
.	.	.	.	.	8f#
V/V	4AA	4AA	8E	4c#	4e
.	.	.	16A	.	.
.	.	.	16G	.	.
V;	4DD;	4D;	4F#;	4A;	4d;
V7b/IV	4GG	4BB	4G	4d	4fn
=15	=15	=15	=15	=15	=15
IV	4CC	4.C	4G	4c	4e
IV	4CC	.	4E	4G	4c
.	.	8BB	.	.	.
ii	4AA	4AA	4A	4c	4e
V	4DD	8D	4A	4d	4f#y
.	.	8C	.	.	.
=16	=16	=16	=16	=16	=16
Ib	4GG	8BB	4G	4.d	4g
.	.	8GG	.	.	.
V	4DD	4D	4F#	.	4a
.	.	.	.	8c	.
I;	4GG;	4GG;	4G;	4B;	4g;
==	==	==	==	==	==
*-	*-	*-	*-	*-	*-
!!!YOR: Ludwig Erk, Peters Editions of 1850, 1865; revised in light of
!!!YOR: Friedrich Smend, Peters Edition of 1932 & Albert Riemenschneider, 1941.
!!!RDT: 1987 September
!!!YER: 1995 March 1
!!!ONB1: Text by Georg Niege; 16th Century secular melody, first appears 
!!!YEC: Copyright 1994, David Huron
!!!YEN: United States of America
!!!SMA: 371 Bach Chorales, edited by Ludwig Erk, C.F. Peters
!!!PDT: 1850, 1865
